blockchains/elrond/assets/CYBER-489c1c/logo.svg

<svg fill="none" height="262" viewBox="0 0 262 262" width="262" xmlns="http://www.w3.org/2000/svg"><rect fill="#fff" height="262" rx="131" width="262"/><g clip-rule="evenodd" fill="#000" fill-rule="evenodd"><path d="m138.934 183.134 33.764-33.677c1.692-1.693.488-4.561-1.893-4.561h-11.647c-.717 0-1.377.286-1.893.774l-4.762 4.733c-1.693 1.693-4.561.488-4.561-1.893v-24.526c0-1.492 1.205-2.668 2.668-2.668h23.58c.717 0 1.376.287 1.893.774l.344.345c1.033 1.032 1.033 2.753 0 3.786l-.488.488c-1.692 1.692-.487 4.561 1.894 4.561h11.79c.717 0 1.376-.287 1.893-.775l4.331-4.331c1.033-1.033 1.033-2.754 0-3.787l-13.912-13.913c-.517-.516-1.176-.774-1.894-.774h-43.028c-1.492 0-2.668 1.205-2.668 2.668v70.854c0 2.381 2.868 3.586 4.561 1.893z"/><path d="m128.207 128.602v-18.244c0-1.492-1.205-2.668-2.668-2.668h-43.1434c-.7172 0-1.377.287-1.8933.774l-13.9987 13.942c-1.0614 1.033-1.0614 2.754 0 3.786 19.0474 18.962 38.0944 37.952 57.1424 56.942 1.692 1.692 4.561.488 4.561-1.893v-33.678c0-1.491-1.205-2.667-2.668-2.667h-8.233c-1.491 0-2.667 1.204-2.667 2.667v.746c0 2.381-2.869 3.586-4.562 1.894l-24.2965-23.982c-1.0614-1.033-1.0614-2.754 0-3.815l.3442-.344c.4877-.488 1.1762-.775 1.8933-.775h23.924c1.492 0 2.668 1.205 2.668 2.668v4.618c0 1.492 1.205 2.668 2.668 2.668h8.233c1.491 0 2.667-1.205 2.667-2.668z"/><path d="m122.097 100.404 6.913-11.9623c1.033-1.7785 3.615-1.7785 4.648 0l6.913 11.9623c.487.832 1.348 1.348 2.323 1.348h9.495c2.066 0 3.357-2.2375 2.324-4.016l-21.055-36.4025c-1.033-1.7785-3.615-1.7785-4.648 0l-21.026 36.4025c-1.033 1.7785.258 4.016 2.323 4.016h9.467c.946 0 1.835-.516 2.323-1.348z"/><path d="m101.213 170.397h-14.9738c-2.0654 0-3.3563-2.237-2.3236-4.016l4.2455-7.343c.6024-1.062.4303-2.381-.4303-3.242l-6.0527-6.024c-1.2335-1.233-3.3276-.975-4.2168.545l-17.0969 29.662c-1.0327 1.778.2582 4.016 2.3236 4.016h46.787c2.381 0 3.586-2.898 1.893-4.561l-8.262-8.233c-.516-.488-1.176-.775-1.893-.775z"/><path d="m159.531 171.172-8.232 8.233c-1.693 1.692-.488 4.561 1.893 4.561h46.787c2.065 0 3.356-2.238 2.323-4.016l-17.125-29.661c-.89-1.521-2.955-1.808-4.217-.545l-6.053 6.024c-.861.86-1.033 2.18-.43 3.241l4.245 7.344c1.033 1.778-.258 4.016-2.323 4.016h-14.974c-.717 0-1.377.287-1.894.774z"/></g></svg>

<svg width="262" height="262" viewBox="0 0 262 262" fill="none" xmlns="http://www.w3.org/2000/svg">
<rect width="262" height="262" rx="131" fill="white"/>
<path fill-rule="evenodd" clip-rule="evenodd" d="M138.934 183.134L172.698 149.457C174.39 147.764 173.186 144.896 170.805 144.896H159.158C158.441 144.896 157.781 145.182 157.265 145.67L152.503 150.403C150.81 152.096 147.942 150.891 147.942 148.51V123.984C147.942 122.492 149.147 121.316 150.61 121.316H174.19C174.907 121.316 175.566 121.603 176.083 122.09L176.427 122.435C177.46 123.467 177.46 125.188 176.427 126.221L175.939 126.709C174.247 128.401 175.452 131.27 177.833 131.27H189.623C190.34 131.27 190.999 130.983 191.516 130.495L195.847 126.164C196.88 125.131 196.88 123.41 195.847 122.377L181.935 108.464C181.418 107.948 180.759 107.69 180.041 107.69H137.013C135.521 107.69 134.345 108.895 134.345 110.358V181.212C134.345 183.593 137.213 184.798 138.906 183.105L138.934 183.134Z" fill="black"/>
<path fill-rule="evenodd" clip-rule="evenodd" d="M128.207 128.602V110.358C128.207 108.866 127.002 107.69 125.539 107.69H82.3956C81.6784 107.69 81.0186 107.977 80.5023 108.464L66.5036 122.406C65.4422 123.439 65.4422 125.16 66.5036 126.192C85.551 145.154 104.598 164.144 123.646 183.134C125.338 184.826 128.207 183.622 128.207 181.241V147.563C128.207 146.072 127.002 144.896 125.539 144.896H117.306C115.815 144.896 114.639 146.1 114.639 147.563V148.309C114.639 150.69 111.77 151.895 110.077 150.203L85.7805 126.221C84.7191 125.188 84.7191 123.467 85.7805 122.406L86.1247 122.062C86.6124 121.574 87.3009 121.287 88.018 121.287H111.942C113.434 121.287 114.61 122.492 114.61 123.955V128.573C114.61 130.065 115.815 131.241 117.278 131.241H125.511C127.002 131.241 128.178 130.036 128.178 128.573L128.207 128.602Z" fill="black"/>
<path fill-rule="evenodd" clip-rule="evenodd" d="M122.097 100.404L129.01 88.4417C130.043 86.6632 132.625 86.6632 133.658 88.4417L140.571 100.404C141.058 101.236 141.919 101.752 142.894 101.752H152.389C154.455 101.752 155.746 99.5145 154.713 97.736L133.658 61.3335C132.625 59.555 130.043 59.555 129.01 61.3335L107.984 97.736C106.951 99.5145 108.242 101.752 110.307 101.752H119.774C120.72 101.752 121.609 101.236 122.097 100.404Z" fill="black"/>
<path fill-rule="evenodd" clip-rule="evenodd" d="M101.213 170.397H86.2392C84.1738 170.397 82.8829 168.16 83.9156 166.381L88.1611 159.038C88.7635 157.976 88.5914 156.657 87.7308 155.796L81.6781 149.772C80.4446 148.539 78.3505 148.797 77.4613 150.317L60.3644 179.979C59.3317 181.757 60.6226 183.995 62.688 183.995H109.475C111.856 183.995 113.061 181.097 111.368 179.434L103.106 171.201C102.59 170.713 101.93 170.426 101.213 170.426V170.397Z" fill="black"/>
<path fill-rule="evenodd" clip-rule="evenodd" d="M159.531 171.172L151.299 179.405C149.606 181.097 150.811 183.966 153.192 183.966H199.979C202.044 183.966 203.335 181.728 202.302 179.95L185.177 150.289C184.287 148.768 182.222 148.481 180.96 149.744L174.907 155.768C174.046 156.628 173.874 157.948 174.477 159.009L178.722 166.353C179.755 168.131 178.464 170.369 176.399 170.369H161.425C160.708 170.369 160.048 170.656 159.531 171.143V171.172Z" fill="black"/>
</svg>
